src/assets/site/voltar-1.svg

<svg xmlns="http://www.w3.org/2000/svg" width="54" height="54" fill="none"><path fill="#000" d="M26.9679 53.9358c3.5414 0 7.0482-.6976 10.3201-2.0528 3.2719-1.3553 6.2448-3.3417 8.749-5.8459 2.5042-2.5042 4.4907-5.4771 5.8459-8.749 1.3553-3.2719 2.0528-6.7787 2.0528-10.3202 0-7.1523-2.8412-14.0117-7.8987-19.06915C40.9796 2.84129 34.1202.00004578 26.9679.00004578c-3.5415 0-7.0483.69754022-10.3202 2.05280422-3.2719 1.35526-6.2448 3.3417-8.74899 5.8459C2.84125 12.9562 0 19.8156 0 26.9679s2.84125 14.0117 7.89871 19.0692c5.05749 5.0574 11.91679 7.8987 19.06919 7.8987Zm-13.484-21.5743 13.484-13.4839 13.4839 13.4839H13.4839Z"/></svg>

<svg width="54" height="54" viewBox="0 0 54 54" fill="none" xmlns="http://www.w3.org/2000/svg">
<path d="M26.9679 53.9358C30.5093 53.9358 34.0161 53.2382 37.288 51.883C40.5599 50.5277 43.5328 48.5413 46.037 46.0371C48.5412 43.5329 50.5277 40.56 51.8829 37.2881C53.2382 34.0162 53.9357 30.5094 53.9357 26.9679C53.9357 19.8156 51.0945 12.9562 46.037 7.89875C40.9796 2.84129 34.1202 4.57764e-05 26.9679 4.57764e-05C23.4264 4.57764e-05 19.9196 0.697586 16.6477 2.05285C13.3758 3.40811 10.4029 5.39455 7.89871 7.89875C2.84125 12.9562 0 19.8156 0 26.9679C0 34.1202 2.84125 40.9796 7.89871 46.0371C12.9562 51.0945 19.8155 53.9358 26.9679 53.9358ZM13.4839 32.3615L26.9679 18.8776L40.4518 32.3615H13.4839Z" fill="black"/>
</svg>
